X:10
T:Montague Reel
C:George Reynolds, Julie Borland, David Kaynor
B:Along The River
Z:Tom Novelli - from a 1"x2" copy on one of David's dance fliers :)
Z:(This was before the book was printed)
R:reel
M:2/4
L:1/16
K:D
   ((3ABc)|\
d2AG FDDF|GEED CA,A,c   |d2AG FDDF|GEDB D3A |
d2AG FDDF|GEED CA,A,G   |FDDA BGdB|cAec d2 :|\
|: ((3efg)|
fddg fddf|eAAd ((3cBA)Ag|fddg fddf|ecAc d2eg|
fddg fddf|eAAd ((3cBA)AG|FDDA BGdB|cAec d2 :|
% ----------------------------------------------------------------------------
